shared/images/iconfont/92-kb-iconfont-stellar-send-16.svg

<svg height="16" viewBox="0 0 16 16" width="16" xmlns="http://www.w3.org/2000/svg"><path d="m3.388 9h4.836a1 1 0 0 1 1 1v1h-6.836v-1a1 1 0 0 1 1-1zm1.624 2.5h4.838a1 1 0 0 1 1 1v1h-6.838v-1a1 1 0 0 1 1-1zm-1.367 2.5h4.835a1 1 0 0 1 1 1v1h-6.835v-1a1 1 0 0 1 1-1zm2.689-11.199c1.37.996 2.122 2.296 1.68 2.905-.443.608-1.912.295-3.282-.7s-2.121-2.296-1.68-2.904c.443-.61 1.912-.296 3.282.7zm-2.736 3.512c1.154.838 2.371 1.185 2.993.911a.686.686 0 0 1 -.112.34c-.443.609-1.912.295-3.281-.7-1.37-.995-2.123-2.295-1.68-2.904a.682.682 0 0 1 .288-.212c-.068.675.638 1.726 1.792 2.565zm5.848-3.18h1.159v2.11a.895.895 0 1 0 1.79 0v-2.11h1.16a.448.448 0 0 0 .313-.765l-2.368-2.368-2.368 2.368a.448.448 0 0 0 .314.765z" fill-rule="evenodd"/></svg>

<svg xmlns="http://www.w3.org/2000/svg" width="16" height="16" viewBox="0 0 16 16">
    <g fill="#000" fill-rule="evenodd">
        <path d="M3.388 9h4.836a1 1 0 0 1 1 1v1H2.388v-1a1 1 0 0 1 1-1zm1.624 2.5H9.85a1 1 0 0 1 1 1v1H4.012v-1a1 1 0 0 1 1-1zM3.645 14H8.48a1 1 0 0 1 1 1v1H2.645v-1a1 1 0 0 1 1-1zM6.334 2.801c1.37.996 2.122 2.296 1.68 2.905-.443.608-1.912.295-3.282-.7-1.37-.995-2.121-2.296-1.68-2.904.443-.61 1.912-.296 3.282.7zM3.598 6.313c1.154.838 2.371 1.185 2.993.911a.686.686 0 0 1-.112.34c-.443.609-1.912.295-3.281-.7-1.37-.995-2.123-2.295-1.68-2.904a.682.682 0 0 1 .288-.212c-.068.675.638 1.726 1.792 2.565zM9.446 3.133h1.159v2.11a.895.895 0 1 0 1.79 0v-2.11h1.16a.448.448 0 0 0 .313-.765L11.5 0 9.132 2.368a.448.448 0 0 0 .314.765z"/>
    </g>
</svg>
